svgs/regular/map-location-dot.svg

<svg xmlns="http://www.w3.org/2000/svg" viewBox="0 0 576 512"><!--! Font Awesome Pro 6.3.0 by @fontawesome - https://fontawesome.com License - https://fontawesome.com/license (Commercial License) Copyright 2023 Fonticons, Inc. --><path d="M408 120c0 8.6-1.8 18.3-5 28.6c-5.7 18.4-15.6 38.8-27.4 59.2l-.1 .2c-3.1 5.4-6.3 10.7-9.6 16c-4.4 7-8.9 14-13.5 20.8l-.4 .6c-18.1 26.9-36.7 51.1-49.2 66.6c-7.7 9.6-22 9.6-29.6 0c-12.4-15.5-31.1-39.7-49.2-66.6c-18.4-27.3-36.3-57.5-46.7-84.4c-.8-2.1-1.6-4.2-2.3-6.3c-4.4-12.6-7-24.4-7-34.6c0-4.7 .3-9.3 .8-13.8C175.6 46.4 226.4 0 288 0c66.3 0 120 53.7 120 120zM352 300.6c13.5-18.2 28.8-39.9 42.7-62.4c1.8-2.9 3.6-5.8 5.3-8.8V453.7l128-46.5V154.3L419.3 193.8c2.2-4.7 4.4-9.3 6.3-14c5.9-14 11-29.2 13.2-44.2l105-38.2c7.4-2.7 15.6-1.6 22 2.9s10.2 11.8 10.2 19.7V424c0 10.1-6.3 19.1-15.8 22.6l-176 64c-5.3 1.9-11.1 1.9-16.4 0L200 449.5l-167.8 61c-7.4 2.7-15.6 1.6-22-2.9S0 495.8 0 488V184c0-10.1 6.3-19.1 15.8-22.6L136 117.7c0 .8 0 1.5 0 2.3c0 15.1 3.7 30.7 8.9 45.6L48 200.8V453.7l128-46.5V229.5c1.8 3 3.5 5.9 5.3 8.8c13.9 22.5 29.1 44.2 42.7 62.4V407.2l128 46.5V300.6zM288 152a40 40 0 1 0 0-80 40 40 0 1 0 0 80z"/></svg>

<svg xmlns="http://www.w3.org/2000/svg" viewBox="0 0 576 512"><!--! Font Awesome Pro 6.2.0 by @fontawesome - https://fontawesome.com License - https://fontawesome.com/license (Commercial License) Copyright 2022 Fonticons, Inc. --><path d="M408 119.1C408 128.6 406.2 138.3 402.1 148.6C397.3 166.1 387.4 187.5 375.6 207.8L375.5 207.1C372.4 213.3 369.2 218.7 365.9 224C361.5 231 356.9 237.1 352.4 244.8L352 245.4C333.9 272.3 315.3 296.4 302.8 311.1C295.1 321.6 280.9 321.6 273.2 311.1C260.7 296.4 242.1 272.3 224 245.4C205.6 218.1 187.7 187.9 177.3 160.9C176.5 158.8 175.7 156.7 174.1 154.6C170.6 142 168 130.3 168 120C168 115.3 168.3 110.7 168.8 106.2C175.6 46.44 226.4 0 288 0C354.3 0 408 53.73 408 120V119.1zM288 151.1C310.1 151.1 328 134.1 328 111.1C328 89.91 310.1 71.1 288 71.1C265.9 71.1 248 89.91 248 111.1C248 134.1 265.9 151.1 288 151.1zM352 300.6C365.5 282.4 380.8 260.7 394.7 238.2C396.5 235.3 398.2 232.4 400 229.5V453.7L528 407.2V154.3L419.3 193.8C421.5 189.1 423.6 184.5 425.6 179.8C431.5 165.8 436.6 150.7 438.8 135.6L543.8 97.44C551.2 94.77 559.4 95.85 565.8 100.3C572.2 104.8 576 112.2 576 119.1V424C576 434.1 569.7 443.1 560.2 446.6L384.2 510.6C378.9 512.5 373.1 512.5 367.8 510.6L200 449.5L32.2 510.6C24.84 513.2 16.64 512.2 10.23 507.7C3.819 503.2 0 495.8 0 488V183.1C0 173.9 6.314 164.9 15.8 161.4L136 117.7C136 118.5 136 119.2 136 119.1C136 135.1 139.7 150.7 144.9 165.6L48 200.8V453.7L176 407.2V229.5C177.8 232.4 179.5 235.3 181.3 238.2C195.2 260.7 210.5 282.4 224 300.6V407.2L352 453.7V300.6z"/></svg>
